;FLAVOR:Marlin
;TIME:73012
;Filament used: 94.2578m
;Layer height: 0.16
;MINX:2.125
;MINY:11.625
;MINZ:0.2
;MAXX:297.875
;MAXY:288.375
;MAXZ:42.16
;Generated with Cura_SteamEngine 4.7.1
M140 S60
M105
M190 S60
M104 S210
M105
M109 S210
M82 ;absolute extrusion mode
M201 X500.00 Y500.00 Z100.00 E5000.00 ;Setup machine max acceleration
M203 X500.00 Y500.00 Z10.00 E50.00 ;Setup machine max feedrate
M204 P500.00 R1000.00 T500.00 ;Setup Print/Retract/Travel acceleration
M205 X8.00 Y8.00 Z0.40 E5.00 ;Setup Jerk
M220 S100 ;Reset Feedrate
M221 S100 ;Reset Flowrate

G28 ;Home

G92 E0 ;Reset Extruder
G1 Z2.0 F3000 ;Move Z Axis up
G1 X10.1 Y20 Z0.28 F5000.0 ;Move to start position
G1 X10.1 Y200.0 Z0.28 F1500.0 E15 ;Draw the first line
G1 X10.4 Y200.0 Z0.28 F5000.0 ;Move to side a little
G1 X10.4 Y20 Z0.28 F1500.0 E30 ;Draw the second line
G92 E0 ;Reset Extruder
G1 Z2.0 F3000 ;Move Z Axis up

G92 E0
G92 E0
G1 F2400 E-1.2
;LAYER_COUNT:262
;LAYER:0
M107
G1 F300 Z0.4
G0 F6000 X7.543 Y13.215 Z0.4
;TYPE:SKIRT
G1 F300 Z0.2
G1 F2400 E0
G1 F900 X8.372 Y12.765 E0.03119
G1 X9.236 Y12.387 E0.06237
G1 X10.129 Y12.083 E0.09355
G1 X11.045 Y11.857 E0.12475
G1 X11.976 Y11.708 E0.15592
G1 X12.947 Y11.638 E0.18811
G1 X13.268 Y11.629 E0.19872
G1 X13.58 Y11.625 E0.20904
G1 X286.043 Y11.625 E9.21728
G1 X286.202 Y11.626 E9.22253
G1 X286.9 Y11.636 E9.24561
G1 X287.842 Y11.69 E9.27681
G1 X288.776 Y11.823 E9.308
G1 X289.695 Y12.034 E9.33918
G1 X290.593 Y12.323 E9.37037
G1 X291.463 Y12.687 E9.40155
G1 X292.299 Y13.123 E9.43272
G1 X293.096 Y13.628 E9.46391
G1 X293.846 Y14.2 E9.4951
G1 X294.546 Y14.832 E9.52628
G1 X295.189 Y15.522 E9.55746
G1 X295.772 Y16.263 E9.58864
G1 X296.29 Y17.052 E9.61984
G1 X296.739 Y17.881 E9.65101
G1 X297.116 Y18.745 E9.68218
G1 X297.419 Y19.639 E9.71339
G1 X297.645 Y20.554 E9.74455
G1 X297.793 Y21.486 E9.77575
G1 X297.862 Y22.447 E9.8076
G1 X297.871 Y22.767 E9.81819
G1 X297.875 Y23.08 E9.82854
G1 X297.875 Y276.514 E18.20763
G1 X297.865 Y277.379 E18.23623
G1 X297.814 Y278.32 E18.26739
G1 X297.682 Y279.254 E18.29858
G1 X297.472 Y280.174 E18.32978
G1 X297.185 Y281.072 E18.36095
G1 X296.823 Y281.943 E18.39213
G1 X296.389 Y282.781 E18.42333
G1 X295.885 Y283.578 E18.45451
G1 X295.315 Y284.33 E18.48571
G1 X294.684 Y285.03 E18.51687
G1 X293.996 Y285.675 E18.54805
G1 X293.255 Y286.259 E18.57924
G1 X292.468 Y286.779 E18.61043
G1 X291.639 Y287.23 E18.64163
G1 X290.776 Y287.609 E18.67279
G1 X289.883 Y287.913 E18.70398
G1 X288.968 Y288.141 E18.73516
G1 X288.036 Y288.29 E18.76636
G1 X287.053 Y288.362 E18.79895
G1 X286.732 Y288.371 E18.80957
G1 X286.42 Y288.375 E18.81988
G1 X13.957 Y288.375 E27.82812
G1 X13.116 Y288.365 E27.85593
G1 X12.174 Y288.313 E27.88712
G1 X11.24 Y288.181 E27.91831
G1 X10.32 Y287.971 E27.94951
G1 X9.422 Y287.683 E27.98068
G1 X8.551 Y287.321 E28.01187
G1 X7.715 Y286.886 E28.04303
G1 X6.917 Y286.382 E28.07423
G1 X6.166 Y285.812 E28.1054
G1 X5.466 Y285.18 E28.13659
G1 X4.821 Y284.491 E28.16779
G1 X4.237 Y283.751 E28.19896
G1 X3.718 Y282.963 E28.23015
G1 X3.268 Y282.134 E28.26134
G1 X2.889 Y281.27 E28.29253
G1 X2.585 Y280.378 E28.32369
G1 X2.358 Y279.462 E28.35489
G1 X2.209 Y278.531 E28.38606
G1 X2.138 Y277.542 E28.41885
G1 X2.129 Y277.209 E28.42986
G1 X2.125 Y276.908 E28.43981
G1 X2.125 Y23.424 E36.82056
G1 X2.135 Y22.608 E36.84754
G1 X2.188 Y21.667 E36.8787
G1 X2.32 Y20.733 E36.90989
G1 X2.531 Y19.814 E36.94106
G1 X2.819 Y18.915 E36.97228
G1 X3.182 Y18.045 E37.00344
G1 X3.618 Y17.208 E37.03465
G1 X4.122 Y16.412 E37.06579
G1 X4.693 Y15.661 E37.09699
G1 X5.325 Y14.96 E37.12819
G1 X6.014 Y14.316 E37.15937
G1 X6.755 Y13.733 E37.19055
G1 X7.543 Y13.215 E37.22172
G0 F6000 X7.97 Y13.486
G1 F900 X8.792 Y13.064 E37.25227
G1 X9.647 Y12.714 E37.28282
G1 X10.529 Y12.439 E37.31336
G1 X11.431 Y12.242 E37.34389
G1 X12.348 Y12.123 E37.37446
G1 X12.96 Y12.088 E37.39473
G1 X13.281 Y12.079 E37.40534
G1 X13.58 Y12.075 E37.41523
G1 X286.043 Y12.075 E46.42347
G1 X286.894 Y12.086 E46.45161
G1 X287.816 Y12.139 E46.48214
G1 X288.731 Y12.272 E46.51271
G1 X289.63 Y12.483 E46.54324
G1 X290.508 Y12.772 E46.5738
G1 X291.357 Y13.135 E46.60433
G1 X292.172 Y13.57 E46.63487
G1 X292.947 Y14.074 E46.66544
G1 X293.674 Y14.643 E46.69596
G1 X294.35 Y15.273 E46.72651
G1 X294.969 Y15.959 E46.75706
G1 X295.526 Y16.696 E46.7876
G1 X296.018 Y17.478 E46.81815
G1 X296.44 Y18.3 E46.8487
G1 X296.789 Y19.156 E46.87926
G1 X297.063 Y20.038 E46.9098
G1 X297.26 Y20.941 E46.94036
G1 X297.378 Y21.857 E46.97089
G1 X297.412 Y22.46 E46.99086
G1 X297.421 Y22.78 E47.00144
G1 X297.425 Y23.08 E47.01136
G1 X297.425 Y276.514 E55.39046
G1 X297.415 Y277.373 E55.41886
G1 X297.364 Y278.296 E55.44942
G1 X297.233 Y279.21 E55.47995
G1 X297.023 Y280.11 E55.51051
G1 X296.737 Y280.988 E55.54104
G1 X296.375 Y281.839 E55.57161
G1 X295.942 Y282.654 E55.60212
G1 X295.439 Y283.43 E55.6327
G1 X294.871 Y284.159 E55.66325
G1 X294.243 Y284.836 E55.69378
G1 X293.558 Y285.456 E55.72433
G1 X292.822 Y286.015 E55.75489
G1 X292.041 Y286.508 E55.78542
G1 X291.22 Y286.931 E55.81596
G1 X290.365 Y287.282 E55.84652
G1 X289.483 Y287.558 E55.87707
G1 X288.581 Y287.756 E55.9076
G1 X287.665 Y287.876 E55.93815
G1 X287.04 Y287.912 E55.95885
G1 X286.719 Y287.921 E55.96946
G1 X286.42 Y287.925 E55.97935
G1 X13.957 Y287.925 E64.98759
G1 X13.121 Y287.915 E65.01523
G1 X12.199 Y287.863 E65.04576
G1 X11.284 Y287.732 E65.07632
G1 X10.385 Y287.522 E65.10684
G1 X9.507 Y287.235 E65.13738
G1 X8.656 Y286.873 E65.16796
G1 X7.841 Y286.439 E65.19849
G1 X7.066 Y285.936 E65.22903
G1 X6.337 Y285.368 E65.25959
G1 X5.66 Y284.739 E65.29014
G1 X5.041 Y284.054 E65.32067
G1 X4.482 Y283.318 E65.35122
G1 X3.99 Y282.536 E65.38177
G1 X3.567 Y281.715 E65.4123
G1 X3.216 Y280.86 E65.44286
G1 X2.941 Y279.978 E65.47341
G1 X2.743 Y279.075 E65.50397
G1 X2.624 Y278.159 E65.53451
G1 X2.588 Y277.529 E65.55537
G1 X2.579 Y277.196 E65.56639
G1 X2.575 Y276.908 E65.57591
G1 X2.575 Y23.424 E73.95666
G1 X2.585 Y22.615 E73.98341
G1 X2.637 Y21.692 E74.01397
G1 X2.769 Y20.778 E74.04451
G1 X2.98 Y19.878 E74.07507
G1 X3.268 Y19 E74.10562
G1 X3.63 Y18.15 E74.13616
G1 X4.065 Y17.335 E74.16671
G1 X4.568 Y16.56 E74.19726
G1 X5.137 Y15.832 E74.2278
G1 X5.766 Y15.156 E74.25833
G1 X6.452 Y14.536 E74.2889
G1 X7.188 Y13.978 E74.31944
G1 X7.97 Y13.486 E74.34999
G0 F6000 X8.395 Y13.765
G1 F900 X9.209 Y13.37 E74.3799
G1 X10.054 Y13.049 E74.40979
G1 X10.924 Y12.804 E74.43967
G1 X11.813 Y12.637 E74.46958
G1 X12.972 Y12.538 E74.50803
G1 X13.293 Y12.529 E74.51865
G1 X13.58 Y12.525 E74.52814
G1 X286.043 Y12.525 E83.53638
G1 X286.887 Y12.536 E83.56428
G1 X287.79 Y12.589 E83.59419
G1 X288.685 Y12.721 E83.6241
G1 X289.564 Y12.932 E83.65399
G1 X290.421 Y13.22 E83.68388
G1 X291.249 Y13.583 E83.71377
G1 X292.043 Y14.017 E83.74369
G1 X292.794 Y14.519 E83.77355
G1 X293.499 Y15.086 E83.80347
G1 X294.15 Y15.713 E83.83335
G1 X294.744 Y16.395 E83.86325
G1 X295.275 Y17.127 E83.89315
G1 X295.739 Y17.903 E83.92304
G1 X296.133 Y18.717 E83.95294
G1 X296.453 Y19.563 E83.98285
G1 X296.698 Y20.433 E84.01273
G1 X296.864 Y21.322 E84.04263
G1 X296.962 Y22.473 E84.08082
G1 X296.971 Y22.793 E84.09141
G1 X296.975 Y23.08 E84.1009
G1 X296.975 Y276.514 E92.47999
G1 X296.965 Y277.368 E92.50823
G1 X296.914 Y278.27 E92.5381
G1 X296.783 Y279.165 E92.568
G1 X296.574 Y280.045 E92.59791
G1 X296.288 Y280.902 E92.62778
G1 X295.927 Y281.732 E92.6577
G1 X295.495 Y282.526 E92.68759
G1 X294.993 Y283.278 E92.71748
G1 X294.428 Y283.984 E92.74738
G1 X293.802 Y284.636 E92.77726
G1 X293.121 Y285.231 E92.80716
G1 X292.39 Y285.764 E92.83707
G1 X291.615 Y286.229 E92.86695
G1 X290.802 Y286.625 E92.89685
G1 X289.957 Y286.947 E92.92675
G1 X289.087 Y287.193 E92.95664
G1 X288.199 Y287.362 E92.98653
G1 X287.028 Y287.462 E93.02539
G1 X286.707 Y287.471 E93.036
G1 X286.42 Y287.475 E93.04549
G1 X13.957 Y287.475 E102.05373
G1 X13.127 Y287.465 E102.08117
G1 X12.224 Y287.414 E102.11108
G1 X11.33 Y287.282 E102.14095
G1 X10.45 Y287.073 E102.17086
G1 X9.593 Y286.786 E102.20074
G1 X8.764 Y286.425 E102.23063
G1 X7.97 Y285.992 E102.26053
G1 X7.218 Y285.49 E102.29043
G1 X6.512 Y284.924 E102.32035
G1 X5.86 Y284.298 E102.35023
G1 X5.265 Y283.617 E102.38013
G1 X4.733 Y282.886 E102.41002
G1 X4.268 Y282.111 E102.4399
G1 X3.873 Y281.297 E102.46981
G1 X3.551 Y280.452 E102.49971
G1 X3.306 Y279.582 E102.52959
G1 X3.138 Y278.694 E102.55947
G1 X3.038 Y277.517 E102.59853
G1 X3.029 Y277.184 E102.60954
G1 X3.025 Y276.908 E102.61867
G1 X3.025 Y23.424 E110.99942
G1 X3.035 Y22.621 E111.02597
G1 X3.087 Y21.718 E111.05587
G1 X3.219 Y20.823 E111.08578
G1 X3.429 Y19.944 E111.11566
G1 X3.716 Y19.087 E111.14554
G1 X4.078 Y18.258 E111.17545
G1 X4.512 Y17.464 E111.20537
G1 X5.014 Y16.712 E111.23526
G1 X5.58 Y16.007 E111.26515
G1 X6.206 Y15.355 E111.29504
G1 X6.888 Y14.761 E111.32494
G1 X7.62 Y14.23 E111.35484
G1 X8.395 Y13.765 E111.38472
G1 F2400 E110.18472
G1 F300 Z0.4
;MESH:too_many_bones_mat.stl
G0 F6000 X285.625 Y276.125 Z0.4
;TYPE:WALL-INNER
G1 F300 Z0.2
G1 F2400 E111.38472
G1 F900 X14.375 Y276.125 E120.35285
G1 X14.375 Y23.875 E128.6928
G1 X285.625 Y23.875 E137.66093
G1 X285.625 Y276.125 E146.00088
G0 F6000 X286.075 Y276.575
G1 F900 X13.925 Y276.575 E154.99877
G1 X13.925 Y23.425 E163.36848
G1 X286.075 Y23.425 E172.36636
G1 X286.075 Y276.575 E180.73607
G0 F6000 X286.525 Y277.025
;TYPE:WALL-OUTER
G1 F900 X13.475 Y277.025 E189.76371
G1 X13.475 Y22.975 E198.16317
G1 X286.525 Y22.975 E207.19082
G1 X286.525 Y277.025 E215.59028
G1 F2400 E214.39028
G1 F300 Z0.4
G0 F6000 X285.185 Y275.685 Z0.4
;TYPE:SKIN
G1 F300 Z0.2
G1 F2400 E215.59028
G1 F900 X14.815 Y275.685 E224.52932
G1 X14.815 Y24.315 E232.84017
G1 X285.185 Y24.315 E241.77921
G1 X285.185 Y275.685 E250.09006
G1 F2400 E248.89006
G1 F300 Z0.4
G0 F6000 X285.004 Y24.718 Z0.4
G1 F300 Z0.2
G1 F2400 E250.09006
G1 F900 X284.78 Y24.494 E250.10054
G0 F6000 X284.144 Y24.494
G1 F900 X285.004 Y25.354 E250.14075
G0 F6000 X285.004 Y25.991
G1 F900 X283.508 Y24.494 E250.21072
G0 F6000 X282.871 Y24.494
G1 F900 X285.004 Y26.627 E250.31045
G0 F6000 X285.004 Y27.263
G1 F900 X282.235 Y24.494 E250.43992
G0 F6000 X281.598 Y24.494
G1 F900 X285.004 Y27.9 E250.59918
G0 F6000 X285.004 Y28.536
G1 F900 X280.962 Y24.494 E250.78817
G0 F6000 X280.326 Y24.494
G1 F900 X285.004 Y29.173 E251.00692
G0 F6000 X285.004 Y29.809
G1 F900 X279.689 Y24.494 E251.25544
G0 F6000 X279.053 Y24.494
G1 F900 X285.004 Y30.445 E251.53369
G0 F6000 X285.004 Y31.082
G1 F900 X278.416 Y24.494 E251.84172
G0 F6000 X277.78 Y24.494
G1 F900 X285.004 Y31.718 E252.1795
G0 F6000 X285.004 Y32.355
G1 F900 X277.144 Y24.494 E252.54703
G0 F6000 X276.507 Y24.494
G1 F900 X285.004 Y32.991 E252.94432
G0 F6000 X285.004 Y33.627
G1 F900 X275.871 Y24.494 E253.37136
G0 F6000 X275.234 Y24.494
G1 F900 X285.004 Y34.264 E253.82817
G0 F6000 X285.004 Y34.9
G1 F900 X274.598 Y24.494 E254.31473
G0 F6000 X273.962 Y24.494
G1 F900 X285.004 Y35.537 E254.83104
G0 F6000 X285.004 Y36.173
G1 F900 X273.325 Y24.494 E255.37712
G0 F6000 X272.689 Y24.494
G1 F900 X285.004 Y36.809 E255.95293
G0 F6000 X285.004 Y37.446
G1 F900 X272.052 Y24.494 E256.55853
G0 F6000 X271.416 Y24.494
G1 F900 X285.004 Y38.082 E257.19386
G0 F6000 X285.004 Y38.719
G1 F900 X270.78 Y24.494 E257.85896
G0 F6000 X270.143 Y24.494
G1 F900 X285.004 Y39.355 E258.55382
G0 F6000 X285.004 Y39.991
G1 F900 X269.507 Y24.494 E259.27841
G0 F6000 X268.87 Y24.494
G1 F900 X285.004 Y40.628 E260.03279
G0 F6000 X285.004 Y41.264
G1 F900 X268.234 Y24.494 E260.8169
G0 F6000 X267.598 Y24.494
G1 F900 X285.004 Y41.901 E261.63078
G0 F6000 X285.004 Y42.537
G1 F900 X266.961 Y24.494 E262.47442
G0 F6000 X266.325 Y24.494
G1 F900 X285.004 Y43.173 E263.34779
G0 F6000 X285.004 Y43.81
G1 F900 X265.689 Y24.494 E264.25093
G0 F6000 X265.052 Y24.494
G1 F900 X285.004 Y44.446 E265.18383
G0 F6000 X285.004 Y45.083
G1 F900 X264.416 Y24.494 E266.14649
G0 F6000 X263.779 Y24.494
G1 F900 X285.004 Y45.719 E267.1389
G0 F6000 X285.004 Y46.355
G1 F900 X263.143 Y24.494 E268.16106
G0 F6000 X262.507 Y24.494
G1 F900 X285.004 Y46.992 E269.21298
G0 F6000 X285.004 Y47.628
G1 F900 X261.87 Y24.494 E270.29466
G0 F6000 X261.234 Y24.494
G1 F900 X285.004 Y48.264 E271.40607
G0 F6000 X285.004 Y48.901
G1 F900 X260.597 Y24.494 E272.54727
G0 F6000 X259.961 Y24.494
G1 F900 X285.004 Y49.537 E273.71821
G0 F6000 X285.004 Y50.174
G1 F900 X259.325 Y24.494 E274.91891
G0 F6000 X258.688 Y24.494
G1 F900 X285.004 Y50.81 E276.14936
G0 F6000 X285.004 Y51.446
G1 F900 X258.052 Y24.494 E277.40956
G0 F6000 X257.415 Y24.494
G1 F900 X285.004 Y52.083 E278.69954
G0 F6000 X285.004 Y52.719
G1 F900 X256.779 Y24.494 E280.01926
G0 F6000 X256.143 Y24.494
G1 F900 X285.004 Y53.356 E281.36874
G0 F6000 X285.004 Y53.992
G1 F900 X255.506 Y24.494 E282.74798
G0 F6000 X254.87 Y24.494
G1 F900 X285.004 Y54.628 E284.15696
G0 F6000 X285.004 Y55.265
G1 F900 X254.233 Y24.494 E285.59572
G0 F6000 X253.597 Y24.494
G1 F900 X285.004 Y55.901 E287.06422
G0 F6000 X285.004 Y56.538
G1 F900 X252.961 Y24.494 E288.56248
G0 F6000 X252.324 Y24.494
G1 F900 X285.004 Y57.174 E290.0905
G0 F6000 X285.004 Y57.81
G1 F900 X251.688 Y24.494 E291.64826
G0 F6000 X251.051 Y24.494
G1 F900 X285.004 Y58.447 E293.2358
G0 F6000 X285.004 Y59.083
G1 F900 X250.415 Y24.494 E294.85308
G0 F6000 X249.779 Y24.494
G1 F900 X285.004 Y59.72 E296.50012
G0 F6000 X285.004 Y60.356
G1 F900 X249.142 Y24.494 E298.17692
G0 F6000 X248.506 Y24.494
G1 F900 X285.004 Y60.992 E299.88346
G0 F6000 X285.004 Y61.629
G1 F900 X247.869 Y24.494 E301.61978
G0 F6000 X247.233 Y24.494
G1 F900 X285.004 Y62.265 E303.38585
G0 F6000 X285.004 Y62.902
G1 F900 X246.597 Y24.494 E305.18167
G0 F6000 X245.96 Y24.494
G1 F900 X285.004 Y63.538 E307.00725
G0 F6000 X285.004 Y64.174
G1 F900 X245.324 Y24.494 E308.86257
G0 F6000 X244.687 Y24.494
G1 F900 X285.004 Y64.811 E310.74768
G0 F6000 X285.004 Y65.447
G1 F900 X244.051 Y24.494 E312.66252
G0 F6000 X243.415 Y24.494
G1 F900 X285.004 Y66.084 E314.60712
G0 F6000 X285.004 Y66.72
G1 F900 X242.778 Y24.494 E316.58148
G0 F6000 X242.142 Y24.494
G1 F900 X285.004 Y67.356 E318.58559
G0 F6000 X285.004 Y67.993
G1 F900 X241.505 Y24.494 E320.61947
G0 F6000 X240.869 Y24.494
G1 F900 X285.004 Y68.629 E322.68309
G0 F6000 X285.004 Y69.266
G1 F900 X240.233 Y24.494 E324.77648
G0 F6000 X239.596 Y24.494
G1 F900 X285.004 Y69.902 E326.89962
G0 F6000 X285.004 Y70.538
G1 F900 X238.96 Y24.494 E329.0525
G0 F6000 X238.323 Y24.494
G1 F900 X285.004 Y71.175 E331.23517
G0 F6000 X285.004 Y71.811
G1 F900 X237.687 Y24.494 E333.44758
G0 F6000 X237.051 Y24.494
G1 F900 X285.004 Y72.448 E335.68974
G0 F6000 X285.004 Y73.084
G1 F900 X236.414 Y24.494 E337.96167
G0 F6000 X235.778 Y24.494
G1 F900 X285.004 Y73.72 E340.26333
G0 F6000 X285.004 Y74.357
G1 F900 X235.141 Y24.494 E342.59478
G0 F6000 X234.505 Y24.494
G1 F900 X285.004 Y74.993 E344.95596
G0 F6000 X285.004 Y75.63
G1 F900 X233.869 Y24.494 E347.34691
G0 F6000 X233.232 Y24.494
G1 F900 X285.004 Y76.266 E349.76761
G0 F6000 X285.004 Y76.902
G1 F900 X232.596 Y24.494 E352.21806
G0 F6000 X231.96 Y24.494
G1 F900 X285.004 Y77.539 E354.69826
G0 F6000 X285.004 Y78.175
G1 F900 X231.323 Y24.494 E357.20823
G0 F6000 X230.687 Y24.494
G1 F900 X285.004 Y78.812 E359.74796
G0 F6000 X285.004 Y79.448
G1 F900 X230.05 Y24.494 E362.31744
G0 F6000 X229.414 Y24.494
G1 F900 X285.004 Y80.084 E364.91667
G0 F6000 X285.004 Y80.721
G1 F900 X228.778 Y24.494 E367.54566
G0 F6000 X228.141 Y24.494
G1 F900 X285.004 Y81.357 E370.2044
G0 F6000 X285.004 Y81.993
G1 F900 X227.505 Y24.494 E372.89289
G0 F6000 X226.868 Y24.494
G1 F900 X285.004 Y82.63 E375.61116
G0 F6000 X285.004 Y83.266
G1 F900 X226.232 Y24.494 E378.35916
G0 F6000 X225.596 Y24.494
G1 F900 X285.004 Y83.903 E381.13693
G0 F6000 X285.004 Y84.539
G1 F900 X224.959 Y24.494 E383.94446
G0 F6000 X224.323 Y24.494
G1 F900 X285.004 Y85.175 E386.78172
G0 F6000 X285.004 Y85.812
G1 F900 X223.686 Y24.494 E389.64877
G0 F6000 X223.05 Y24.494
G1 F900 X285.004 Y86.448 E392.54556
G0 F6000 X285.004 Y87.085
G1 F900 X222.414 Y24.494 E395.47211
G0 F6000 X221.777 Y24.494
G1 F900 X285.004 Y87.721 E398.42842
G0 F6000 X285.004 Y88.357
G1 F900 X221.141 Y24.494 E401.41446
G0 F6000 X220.504 Y24.494
G1 F900 X285.004 Y88.994 E404.43029
G0 F6000 X285.004 Y89.63
